X:70
T:Humpty Dumpty
R:Jig
D:Tape of concert ('You and Yours'), Newtownards, 1983
H:Played with 71. Given the musicians these could be Fermanagh tunes.
Z:Bernie Stocks
M:6/8
K:D
DFA BGB | cAc d2B | AFA G2B | F2A ~E3 | DFA BGB | cAc def | edB BAF | AFE D3 ::
AFA ~f3 | ece d2B | AFA ~f3 | g2f e3 | AFA ~f3 | ece def | edB BAF | AFE D3 :|
